public/icons/top-left-card-orange.svg

<svg width="31" height="15" viewBox="0 0 31 15" fill="none" xmlns="http://www.w3.org/2000/svg">
<path d="M7.43561 12.5481L0 8.81611V7.35577L7.43561 3.6238L8.42428 4.97596L1.02986 8.6899V7.48197L8.42428 11.1959L7.43561 12.5481Z" fill="#F0B270"/>
<path d="M10.1424 15L18.6284 0H20.6676L12.2021 15H10.1424Z" fill="#F0B270"/>
<path d="M23.5644 12.5481L22.5757 11.1959L29.9701 7.48197V8.6899L22.5757 4.97596L23.5644 3.6238L31 7.35577V8.81611L23.5644 12.5481Z" fill="#F0B270"/>
</svg>

<svg xmlns="http://www.w3.org/2000/svg" width="31" height="15" fill="none"><path fill="#F0B270" d="M7.436 12.548 0 8.816v-1.46l7.436-3.732.988 1.352L1.03 8.69V7.482l7.394 3.714-.988 1.352ZM10.142 15l8.486-15h2.04l-8.466 15h-2.06ZM23.564 12.548l-.988-1.352 7.394-3.714V8.69l-7.394-3.714.988-1.352L31 7.356v1.46l-7.436 3.732Z"/></svg>
